;FLAVOR:Marlin
;TIME:6
;Layer height: 2
;MINX:10
;MINY:0
;MINZ:2
;MAXX:240
;MAXY:230
;MAXZ:2
T1
M140 S70
M105
M190 S70
M105
M82 ;absolute extrusion mode
G21 ;metric values
M107
G28
M420 S1
G90 ;absolute positioning
G92 E0; reset extruder distance
G1 X0 Y0 Z10 F5000 ;move nozzle up 10mm for safe homing
M500
M82 ;set extruder to absolute mode
M107 ;start with the fan off
G92 E0 ;zero the extruded length
M117 Printing...
G92 E0
G92 E0
;LAYER_COUNT:1
;LAYER:0
M107









;MESH:SlurryPrimeTower.stl
G0 F3600 X16.778 Y13.684 Z2
;TYPE:WALL-OUTER
G1 F420 X20.677 Y11.697 E0.07278
G1 X25 Y11.013 E0.14556
G1 X29.323 Y11.697 E0.21835
G1 X33.222 Y13.684 E0.29112
G1 X36.316 Y16.778 E0.36389
G1 X38.303 Y20.677 E0.43666
G1 X38.987 Y25 E0.50945
G1 X38.303 Y29.323 E0.58224
G1 X36.316 Y33.222 E0.65501
G1 X33.222 Y36.316 E0.72778
G1 X29.323 Y38.303 E0.80055
G1 X25 Y38.987 E0.87334
G1 X20.677 Y38.303 E0.94612
G1 X16.778 Y36.316 E1.0189
G1 X13.684 Y33.222 E1.09167
G1 X11.697 Y29.323 E1.16444
G1 X11.013 Y25 E1.23723
G1 X11.697 Y20.677 E1.31001
G1 X13.684 Y16.778 E1.38279
G1 X16.778 Y13.684 E1.45555
G0 F3600 X17.668 Y13.23
G0 X17.962 Y15.314
;TYPE:SKIN
G1 F420 X21.299 Y13.614 E1.51783
G1 X25 Y13.029 E1.58015
G1 X28.701 Y13.614 E1.64246
G1 X32.038 Y15.314 E1.70474
G1 X34.686 Y17.962 E1.76702
G1 X36.386 Y21.299 E1.8293
G1 X36.971 Y25 E1.89161
G1 X36.386 Y28.701 E1.95392
G1 X34.686 Y32.038 E2.0162
G1 X32.038 Y34.686 E2.07848
G1 X28.701 Y36.386 E2.14076
G1 X25 Y36.971 E2.20307
G1 X21.299 Y36.386 E2.26538
G1 X17.962 Y34.686 E2.32766
G1 X15.314 Y32.038 E2.38994
G1 X13.614 Y28.701 E2.45222
G1 X13.029 Y25 E2.51453
G1 X13.614 Y21.299 E2.57685
G1 X15.314 Y17.962 E2.63913
G1 X17.962 Y15.314 E2.7014
G0 F3600 X19.151 Y16.953
G1 F420 X21.926 Y15.539 E2.7532
G1 X25 Y15.053 E2.80495
G1 X28.074 Y15.539 E2.85671
G1 X30.849 Y16.953 E2.9085
G1 X33.047 Y19.151 E2.9602
G1 X34.461 Y21.926 E3.01199
G1 X34.947 Y25 E3.06375
G1 X34.461 Y28.074 E3.1155
G1 X33.047 Y30.849 E3.1673
G1 X30.849 Y33.047 E3.21899
G1 X28.074 Y34.461 E3.27079
G1 X25 Y34.947 E3.32254
G1 X21.926 Y34.461 E3.3743
G1 X19.151 Y33.047 E3.42609
G1 X16.953 Y30.849 E3.47778
G1 X15.539 Y28.074 E3.52958
G1 X15.053 Y25 E3.58133
G1 X15.539 Y21.926 E3.63309
G1 X16.953 Y19.151 E3.68488
G1 X19.151 Y16.953 E3.73658
G0 F3600 X27.706 Y16.392
G1 F420 X33.607 Y22.293 E3.87536
G0 F3600 X33.96 Y25.474
G1 F420 X24.525 Y16.04 E4.09725
G0 F3600 X22.111 Y16.455
G1 F420 X33.545 Y27.888 E4.36614
G0 F3600 X32.59 Y29.762
G1 F420 X20.237 Y17.408 E4.65668
G0 F3600 X18.687 Y18.687
G1 F420 X31.311 Y31.311 E4.95358
G0 F3600 X29.761 Y32.589
G1 F420 X17.408 Y20.236 E5.2441
G0 F3600 X16.454 Y22.111
G1 F420 X27.887 Y33.544 E5.51299
G0 F3600 X25.474 Y33.959
G1 F420 X16.039 Y24.524 E5.73488
G0 F3600 X16.392 Y27.705
G1 F420 X22.292 Y33.606 E5.87365
G1 X22.645 Y33.959




;Coordinate data for diamond frame
;Layer1 Z2
G0 F3600 X40 Y60
G1 F420 X195.8846 Y60 E8.4681
G1 F420 X195.8846 Y150 E9.9681
G1 F420 X40 Y150 E12.5662
G1 F420 X40 Y60 E14.0662
G0 F3600 X169.9038 Y67.5
G1 F420 X169.9038 Y82.5 E14.3162
G1 F420 X169.9038 Y97.5 E14.5662
G1 F420 X169.9038 Y112.5 E14.8162
G1 F420 X169.9038 Y127.5 E15.0662
G1 F420 X169.9038 Y142.5 E15.3162
G0 F3600 X143.923 Y67.5
G1 F420 X143.923 Y82.5 E15.5662
G1 F420 X143.923 Y97.5 E15.8162
G1 F420 X143.923 Y112.5 E16.0662
G1 F420 X143.923 Y127.5 E16.3162
G1 F420 X143.923 Y142.5 E16.5662
G0 F3600 X117.9423 Y67.5
G1 F420 X117.9423 Y82.5 E16.8162
G1 F420 X117.9423 Y97.5 E17.0662
G1 F420 X117.9423 Y112.5 E17.3162
G1 F420 X117.9423 Y127.5 E17.5662
G1 F420 X117.9423 Y142.5 E17.8162
G0 F3600 X91.9615 Y67.5
G1 F420 X91.9615 Y82.5 E18.0662
G1 F420 X91.9615 Y97.5 E18.3162
G1 F420 X91.9615 Y112.5 E18.5662
G1 F420 X91.9615 Y127.5 E18.8162
G1 F420 X91.9615 Y142.5 E19.0662
G0 F3600 X65.9808 Y67.5
G1 F420 X65.9808 Y82.5 E19.3162
G1 F420 X65.9808 Y97.5 E19.5662
G1 F420 X65.9808 Y112.5 E19.8162
G1 F420 X65.9808 Y127.5 E20.0662
G1 F420 X65.9808 Y142.5 E20.3162
G0 F3600 X182.8942 Y150
G1 F420 X195.8846 Y142.5 E20.5662
G1 F420 X182.8942 Y135 E20.8162
G1 F420 X195.8846 Y127.5 E21.0662
G1 F420 X182.8942 Y120 E21.3162
G1 F420 X195.8846 Y112.5 E21.5662
G1 F420 X182.8942 Y105 E21.8162
G1 F420 X195.8846 Y97.5 E22.0662
G1 F420 X182.8942 Y90 E22.3162
G1 F420 X195.8846 Y82.5 E22.5662
G1 F420 X182.8942 Y75 E22.8162
G1 F420 X195.8846 Y67.5 E23.0662
G1 F420 X182.8942 Y60 E23.3162
G1 F420 X182.8942 Y75 E23.5662
G1 F420 X182.8942 Y90 E23.8162
G1 F420 X182.8942 Y105 E24.0662
G1 F420 X182.8942 Y120 E24.3162
G1 F420 X182.8942 Y135 E24.5662
G1 F420 X182.8942 Y150 E24.8162
G1 F420 X169.9038 Y142.5 E25.0662
G1 F420 X182.8942 Y135 E25.3162
G1 F420 X169.9038 Y127.5 E25.5662
G1 F420 X182.8942 Y120 E25.8162
G1 F420 X169.9038 Y112.5 E26.0662
G1 F420 X182.8942 Y105 E26.3162
G1 F420 X169.9038 Y97.5 E26.5662
G1 F420 X182.8942 Y90 E26.8162
G1 F420 X169.9038 Y82.5 E27.0662
G1 F420 X182.8942 Y75 E27.3162
G1 F420 X169.9038 Y67.5 E27.5662
G1 F420 X182.8942 Y60 E27.8162
G0 F3600 X156.9134 Y60
G1 F420 X169.9038 Y67.5 E28.0662
G1 F420 X156.9134 Y75 E28.3162
G1 F420 X169.9038 Y82.5 E28.5662
G1 F420 X156.9134 Y90 E28.8162
G1 F420 X169.9038 Y97.5 E29.0662
G1 F420 X156.9134 Y105 E29.3162
G1 F420 X169.9038 Y112.5 E29.5662
G1 F420 X156.9134 Y120 E29.8162
G1 F420 X169.9038 Y127.5 E30.0662
G1 F420 X156.9134 Y135 E30.3162
G1 F420 X169.9038 Y142.5 E30.5662
G1 F420 X156.9134 Y150 E30.8162
G1 F420 X156.9134 Y135 E31.0662
G1 F420 X156.9134 Y120 E31.3162
G1 F420 X156.9134 Y105 E31.5662
G1 F420 X156.9134 Y90 E31.8162
G1 F420 X156.9134 Y75 E32.0662
G1 F420 X156.9134 Y60 E32.3162
G1 F420 X143.923 Y67.5 E32.5662
G1 F420 X156.9134 Y75 E32.8162
G1 F420 X143.923 Y82.5 E33.0662
G1 F420 X156.9134 Y90 E33.3162
G1 F420 X143.923 Y97.5 E33.5662
G1 F420 X156.9134 Y105 E33.8162
G1 F420 X143.923 Y112.5 E34.0662
G1 F420 X156.9134 Y120 E34.3162
G1 F420 X143.923 Y127.5 E34.5662
G1 F420 X156.9134 Y135 E34.8162
G1 F420 X143.923 Y142.5 E35.0662
G1 F420 X156.9134 Y150 E35.3162
G0 F3600 X130.9327 Y150
G1 F420 X143.923 Y142.5 E35.5662
G1 F420 X130.9327 Y135 E35.8162
G1 F420 X143.923 Y127.5 E36.0662
G1 F420 X130.9327 Y120 E36.3162
G1 F420 X143.923 Y112.5 E36.5662
G1 F420 X130.9327 Y105 E36.8162
G1 F420 X143.923 Y97.5 E37.0662
G1 F420 X130.9327 Y90 E37.3162
G1 F420 X143.923 Y82.5 E37.5662
G1 F420 X130.9327 Y75 E37.8162
G1 F420 X143.923 Y67.5 E38.0662
G1 F420 X130.9327 Y60 E38.3162
G1 F420 X130.9327 Y75 E38.5662
G1 F420 X130.9327 Y90 E38.8162
G1 F420 X130.9327 Y105 E39.0662
G1 F420 X130.9327 Y120 E39.3162
G1 F420 X130.9327 Y135 E39.5662
G1 F420 X130.9327 Y150 E39.8162
G1 F420 X117.9423 Y142.5 E40.0662
G1 F420 X130.9327 Y135 E40.3162
G1 F420 X117.9423 Y127.5 E40.5662
G1 F420 X130.9327 Y120 E40.8162
G1 F420 X117.9423 Y112.5 E41.0662
G1 F420 X130.9327 Y105 E41.3162
G1 F420 X117.9423 Y97.5 E41.5662
G1 F420 X130.9327 Y90 E41.8162
G1 F420 X117.9423 Y82.5 E42.0662
G1 F420 X130.9327 Y75 E42.3162
G1 F420 X117.9423 Y67.5 E42.5662
G1 F420 X130.9327 Y60 E42.8162
G0 F3600 X104.9519 Y60
G1 F420 X117.9423 Y67.5 E43.0662
G1 F420 X104.9519 Y75 E43.3162
G1 F420 X117.9423 Y82.5 E43.5662
G1 F420 X104.9519 Y90 E43.8162
G1 F420 X117.9423 Y97.5 E44.0662
G1 F420 X104.9519 Y105 E44.3162
G1 F420 X117.9423 Y112.5 E44.5662
G1 F420 X104.9519 Y120 E44.8162
G1 F420 X117.9423 Y127.5 E45.0662
G1 F420 X104.9519 Y135 E45.3162
G1 F420 X117.9423 Y142.5 E45.5662
G1 F420 X104.9519 Y150 E45.8162
G1 F420 X104.9519 Y135 E46.0662
G1 F420 X104.9519 Y120 E46.3162
G1 F420 X104.9519 Y105 E46.5662
G1 F420 X104.9519 Y90 E46.8162
G1 F420 X104.9519 Y75 E47.0662
G1 F420 X104.9519 Y60 E47.3162
G1 F420 X91.9615 Y67.5 E47.5662
G1 F420 X104.9519 Y75 E47.8162
G1 F420 X91.9615 Y82.5 E48.0662
G1 F420 X104.9519 Y90 E48.3162
G1 F420 X91.9615 Y97.5 E48.5662
G1 F420 X104.9519 Y105 E48.8162
G1 F420 X91.9615 Y112.5 E49.0662
G1 F420 X104.9519 Y120 E49.3162
G1 F420 X91.9615 Y127.5 E49.5662
G1 F420 X104.9519 Y135 E49.8162
G1 F420 X91.9615 Y142.5 E50.0662
G1 F420 X104.9519 Y150 E50.3162
G0 F3600 X78.9711 Y150
G1 F420 X91.9615 Y142.5 E50.5662
G1 F420 X78.9711 Y135 E50.8162
G1 F420 X91.9615 Y127.5 E51.0662
G1 F420 X78.9711 Y120 E51.3162
G1 F420 X91.9615 Y112.5 E51.5662
G1 F420 X78.9711 Y105 E51.8162
G1 F420 X91.9615 Y97.5 E52.0662
G1 F420 X78.9711 Y90 E52.3162
G1 F420 X91.9615 Y82.5 E52.5662
G1 F420 X78.9711 Y75 E52.8162
G1 F420 X91.9615 Y67.5 E53.0662
G1 F420 X78.9711 Y60 E53.3162
G1 F420 X78.9711 Y75 E53.5662
G1 F420 X78.9711 Y90 E53.8162
G1 F420 X78.9711 Y105 E54.0662
G1 F420 X78.9711 Y120 E54.3162
G1 F420 X78.9711 Y135 E54.5662
G1 F420 X78.9711 Y150 E54.8162
G1 F420 X65.9808 Y142.5 E55.0662
G1 F420 X78.9711 Y135 E55.3162
G1 F420 X65.9808 Y127.5 E55.5662
G1 F420 X78.9711 Y120 E55.8162
G1 F420 X65.9808 Y112.5 E56.0662
G1 F420 X78.9711 Y105 E56.3162
G1 F420 X65.9808 Y97.5 E56.5662
G1 F420 X78.9711 Y90 E56.8162
G1 F420 X65.9808 Y82.5 E57.0662
G1 F420 X78.9711 Y75 E57.3162
G1 F420 X65.9808 Y67.5 E57.5662
G1 F420 X78.9711 Y60 E57.8162
G0 F3600 X52.9904 Y60
G1 F420 X65.9808 Y67.5 E58.0662
G1 F420 X52.9904 Y75 E58.3162
G1 F420 X65.9808 Y82.5 E58.5662
G1 F420 X52.9904 Y90 E58.8162
G1 F420 X65.9808 Y97.5 E59.0662
G1 F420 X52.9904 Y105 E59.3162
G1 F420 X65.9808 Y112.5 E59.5662
G1 F420 X52.9904 Y120 E59.8162
G1 F420 X65.9808 Y127.5 E60.0662
G1 F420 X52.9904 Y135 E60.3162
G1 F420 X65.9808 Y142.5 E60.5662
G1 F420 X52.9904 Y150 E60.8162
G1 F420 X52.9904 Y135 E61.0662
G1 F420 X52.9904 Y120 E61.3162
G1 F420 X52.9904 Y105 E61.5662
G1 F420 X52.9904 Y90 E61.8162
G1 F420 X52.9904 Y75 E62.0662
G1 F420 X52.9904 Y60 E62.3162
G1 F420 X40 Y67.5 E62.5662
G1 F420 X52.9904 Y75 E62.8162
G1 F420 X40 Y82.5 E63.0662
G1 F420 X52.9904 Y90 E63.3162
G1 F420 X40 Y97.5 E63.5662
G1 F420 X52.9904 Y105 E63.8162
G1 F420 X40 Y112.5 E64.0662
G1 F420 X52.9904 Y120 E64.3162
G1 F420 X40 Y127.5 E64.5662
G1 F420 X52.9904 Y135 E64.8162
G1 F420 X40 Y142.5 E65.0662
G1 F420 X52.9904 Y150 E65.3162




;Interlayer time gap
G0 F3600 X40 Y60 Z4
G91
G1 Z200
G4 S300
G1 Z-200
G90




;Layer2 Z4
G0 F3600 X40 Y60
G1 F420 X195.8846 Y60 E67.9142
G1 F420 X195.8846 Y150 E69.4142
G1 F420 X40 Y150 E72.0123
G1 F420 X40 Y60 E73.5123
G0 F3600 X169.9038 Y67.5
G1 F420 X169.9038 Y82.5 E73.7623
G1 F420 X169.9038 Y97.5 E74.0123
G1 F420 X169.9038 Y112.5 E74.2623
G1 F420 X169.9038 Y127.5 E74.5123
G1 F420 X169.9038 Y142.5 E74.7623
G0 F3600 X143.923 Y67.5
G1 F420 X143.923 Y82.5 E75.0123
G1 F420 X143.923 Y97.5 E75.2623
G1 F420 X143.923 Y112.5 E75.5123
G1 F420 X143.923 Y127.5 E75.7623
G1 F420 X143.923 Y142.5 E76.0123
G0 F3600 X117.9423 Y67.5
G1 F420 X117.9423 Y82.5 E76.2623
G1 F420 X117.9423 Y97.5 E76.5123
G1 F420 X117.9423 Y112.5 E76.7623
G1 F420 X117.9423 Y127.5 E77.0123
G1 F420 X117.9423 Y142.5 E77.2623
G0 F3600 X91.9615 Y67.5
G1 F420 X91.9615 Y82.5 E77.5123
G1 F420 X91.9615 Y97.5 E77.7623
G1 F420 X91.9615 Y112.5 E78.0123
G1 F420 X91.9615 Y127.5 E78.2623
G1 F420 X91.9615 Y142.5 E78.5123
G0 F3600 X65.9808 Y67.5
G1 F420 X65.9808 Y82.5 E78.7623
G1 F420 X65.9808 Y97.5 E79.0123
G1 F420 X65.9808 Y112.5 E79.2623
G1 F420 X65.9808 Y127.5 E79.5123
G1 F420 X65.9808 Y142.5 E79.7623
G0 F3600 X182.8942 Y150
G1 F420 X195.8846 Y142.5 E80.0123
G1 F420 X182.8942 Y135 E80.2623
G1 F420 X195.8846 Y127.5 E80.5123
G1 F420 X182.8942 Y120 E80.7623
G1 F420 X195.8846 Y112.5 E81.0123
G1 F420 X182.8942 Y105 E81.2623
G1 F420 X195.8846 Y97.5 E81.5123
G1 F420 X182.8942 Y90 E81.7623
G1 F420 X195.8846 Y82.5 E82.0123
G1 F420 X182.8942 Y75 E82.2623
G1 F420 X195.8846 Y67.5 E82.5123
G1 F420 X182.8942 Y60 E82.7623
G1 F420 X182.8942 Y75 E83.0123
G1 F420 X182.8942 Y90 E83.2623
G1 F420 X182.8942 Y105 E83.5123
G1 F420 X182.8942 Y120 E83.7623
G1 F420 X182.8942 Y135 E84.0123
G1 F420 X182.8942 Y150 E84.2623
G1 F420 X169.9038 Y142.5 E84.5123
G1 F420 X182.8942 Y135 E84.7623
G1 F420 X169.9038 Y127.5 E85.0123
G1 F420 X182.8942 Y120 E85.2623
G1 F420 X169.9038 Y112.5 E85.5123
G1 F420 X182.8942 Y105 E85.7623
G1 F420 X169.9038 Y97.5 E86.0123
G1 F420 X182.8942 Y90 E86.2623
G1 F420 X169.9038 Y82.5 E86.5123
G1 F420 X182.8942 Y75 E86.7623
G1 F420 X169.9038 Y67.5 E87.0123
G1 F420 X182.8942 Y60 E87.2623
G0 F3600 X156.9134 Y60
G1 F420 X169.9038 Y67.5 E87.5123
G1 F420 X156.9134 Y75 E87.7623
G1 F420 X169.9038 Y82.5 E88.0123
G1 F420 X156.9134 Y90 E88.2623
G1 F420 X169.9038 Y97.5 E88.5123
G1 F420 X156.9134 Y105 E88.7623
G1 F420 X169.9038 Y112.5 E89.0123
G1 F420 X156.9134 Y120 E89.2623
G1 F420 X169.9038 Y127.5 E89.5123
G1 F420 X156.9134 Y135 E89.7623
G1 F420 X169.9038 Y142.5 E90.0123
G1 F420 X156.9134 Y150 E90.2623
G1 F420 X156.9134 Y135 E90.5123
G1 F420 X156.9134 Y120 E90.7623
G1 F420 X156.9134 Y105 E91.0123
G1 F420 X156.9134 Y90 E91.2623
G1 F420 X156.9134 Y75 E91.5123
G1 F420 X156.9134 Y60 E91.7623
G1 F420 X143.923 Y67.5 E92.0123
G1 F420 X156.9134 Y75 E92.2623
G1 F420 X143.923 Y82.5 E92.5123
G1 F420 X156.9134 Y90 E92.7623
G1 F420 X143.923 Y97.5 E93.0123
G1 F420 X156.9134 Y105 E93.2623
G1 F420 X143.923 Y112.5 E93.5123
G1 F420 X156.9134 Y120 E93.7623
G1 F420 X143.923 Y127.5 E94.0123
G1 F420 X156.9134 Y135 E94.2623
G1 F420 X143.923 Y142.5 E94.5123
G1 F420 X156.9134 Y150 E94.7623
G0 F3600 X130.9327 Y150
G1 F420 X143.923 Y142.5 E95.0123
G1 F420 X130.9327 Y135 E95.2623
G1 F420 X143.923 Y127.5 E95.5123
G1 F420 X130.9327 Y120 E95.7623
G1 F420 X143.923 Y112.5 E96.0123
G1 F420 X130.9327 Y105 E96.2623
G1 F420 X143.923 Y97.5 E96.5123
G1 F420 X130.9327 Y90 E96.7623
G1 F420 X143.923 Y82.5 E97.0123
G1 F420 X130.9327 Y75 E97.2623
G1 F420 X143.923 Y67.5 E97.5123
G1 F420 X130.9327 Y60 E97.7623
G1 F420 X130.9327 Y75 E98.0123
G1 F420 X130.9327 Y90 E98.2623
G1 F420 X130.9327 Y105 E98.5123
G1 F420 X130.9327 Y120 E98.7623
G1 F420 X130.9327 Y135 E99.0123
G1 F420 X130.9327 Y150 E99.2623
G1 F420 X117.9423 Y142.5 E99.5123
G1 F420 X130.9327 Y135 E99.7623
G1 F420 X117.9423 Y127.5 E100.0123
G1 F420 X130.9327 Y120 E100.2623
G1 F420 X117.9423 Y112.5 E100.5123
G1 F420 X130.9327 Y105 E100.7623
G1 F420 X117.9423 Y97.5 E101.0123
G1 F420 X130.9327 Y90 E101.2623
G1 F420 X117.9423 Y82.5 E101.5123
G1 F420 X130.9327 Y75 E101.7623
G1 F420 X117.9423 Y67.5 E102.0123
G1 F420 X130.9327 Y60 E102.2623
G0 F3600 X104.9519 Y60
G1 F420 X117.9423 Y67.5 E102.5123
G1 F420 X104.9519 Y75 E102.7623
G1 F420 X117.9423 Y82.5 E103.0123
G1 F420 X104.9519 Y90 E103.2623
G1 F420 X117.9423 Y97.5 E103.5123
G1 F420 X104.9519 Y105 E103.7623
G1 F420 X117.9423 Y112.5 E104.0123
G1 F420 X104.9519 Y120 E104.2623
G1 F420 X117.9423 Y127.5 E104.5123
G1 F420 X104.9519 Y135 E104.7623
G1 F420 X117.9423 Y142.5 E105.0123
G1 F420 X104.9519 Y150 E105.2623
G1 F420 X104.9519 Y135 E105.5123
G1 F420 X104.9519 Y120 E105.7623
G1 F420 X104.9519 Y105 E106.0123
G1 F420 X104.9519 Y90 E106.2623
G1 F420 X104.9519 Y75 E106.5123
G1 F420 X104.9519 Y60 E106.7623
G1 F420 X91.9615 Y67.5 E107.0123
G1 F420 X104.9519 Y75 E107.2623
G1 F420 X91.9615 Y82.5 E107.5123
G1 F420 X104.9519 Y90 E107.7623
G1 F420 X91.9615 Y97.5 E108.0123
G1 F420 X104.9519 Y105 E108.2623
G1 F420 X91.9615 Y112.5 E108.5123
G1 F420 X104.9519 Y120 E108.7623
G1 F420 X91.9615 Y127.5 E109.0123
G1 F420 X104.9519 Y135 E109.2623
G1 F420 X91.9615 Y142.5 E109.5123
G1 F420 X104.9519 Y150 E109.7623
G0 F3600 X78.9711 Y150
G1 F420 X91.9615 Y142.5 E110.0123
G1 F420 X78.9711 Y135 E110.2623
G1 F420 X91.9615 Y127.5 E110.5123
G1 F420 X78.9711 Y120 E110.7623
G1 F420 X91.9615 Y112.5 E111.0123
G1 F420 X78.9711 Y105 E111.2623
G1 F420 X91.9615 Y97.5 E111.5123
G1 F420 X78.9711 Y90 E111.7623
G1 F420 X91.9615 Y82.5 E112.0123
G1 F420 X78.9711 Y75 E112.2623
G1 F420 X91.9615 Y67.5 E112.5123
G1 F420 X78.9711 Y60 E112.7623
G1 F420 X78.9711 Y75 E113.0123
G1 F420 X78.9711 Y90 E113.2623
G1 F420 X78.9711 Y105 E113.5123
