;FLAVOR:Marlin
;TIME:6
;Layer height: 2
;MINX:10
;MINY:0
;MINZ:2
;MAXX:240
;MAXY:230
;MAXZ:2
T1
M140 S70
M105
M190 S70
M105
M82 ;absolute extrusion mode
G21 ;metric values
M107
G28
M420 S1
G90 ;absolute positioning
G92 E0; reset extruder distance
G1 X0 Y0 Z10 F5000 ;move nozzle up 10mm for safe homing
M500
M82 ;set extruder to absolute mode
M107 ;start with the fan off
G92 E0 ;zero the extruded length
M117 Printing...
G92 E0
G92 E0
;LAYER_COUNT:1
;LAYER:0
M107









;MESH:SlurryPrimeTower.stl
G0 F3600 X16.778 Y13.684 Z2
;TYPE:WALL-OUTER
G1 F420 X20.677 Y11.697 E0.07278
G1 X25 Y11.013 E0.14556
G1 X29.323 Y11.697 E0.21835
G1 X33.222 Y13.684 E0.29112
G1 X36.316 Y16.778 E0.36389
G1 X38.303 Y20.677 E0.43666
G1 X38.987 Y25 E0.50945
G1 X38.303 Y29.323 E0.58224
G1 X36.316 Y33.222 E0.65501
G1 X33.222 Y36.316 E0.72778
G1 X29.323 Y38.303 E0.80055
G1 X25 Y38.987 E0.87334
G1 X20.677 Y38.303 E0.94612
G1 X16.778 Y36.316 E1.0189
G1 X13.684 Y33.222 E1.09167
G1 X11.697 Y29.323 E1.16444
G1 X11.013 Y25 E1.23723
G1 X11.697 Y20.677 E1.31001
G1 X13.684 Y16.778 E1.38279
G1 X16.778 Y13.684 E1.45555
G0 F3600 X17.668 Y13.23
G0 X17.962 Y15.314
;TYPE:SKIN
G1 F420 X21.299 Y13.614 E1.51783
G1 X25 Y13.029 E1.58015
G1 X28.701 Y13.614 E1.64246
G1 X32.038 Y15.314 E1.70474
G1 X34.686 Y17.962 E1.76702
G1 X36.386 Y21.299 E1.8293
G1 X36.971 Y25 E1.89161
G1 X36.386 Y28.701 E1.95392
G1 X34.686 Y32.038 E2.0162
G1 X32.038 Y34.686 E2.07848
G1 X28.701 Y36.386 E2.14076
G1 X25 Y36.971 E2.20307
G1 X21.299 Y36.386 E2.26538
G1 X17.962 Y34.686 E2.32766
G1 X15.314 Y32.038 E2.38994
G1 X13.614 Y28.701 E2.45222
G1 X13.029 Y25 E2.51453
G1 X13.614 Y21.299 E2.57685
G1 X15.314 Y17.962 E2.63913
G1 X17.962 Y15.314 E2.7014
G0 F3600 X19.151 Y16.953
G1 F420 X21.926 Y15.539 E2.7532
G1 X25 Y15.053 E2.80495
G1 X28.074 Y15.539 E2.85671
G1 X30.849 Y16.953 E2.9085
G1 X33.047 Y19.151 E2.9602
G1 X34.461 Y21.926 E3.01199
G1 X34.947 Y25 E3.06375
G1 X34.461 Y28.074 E3.1155
G1 X33.047 Y30.849 E3.1673
G1 X30.849 Y33.047 E3.21899
G1 X28.074 Y34.461 E3.27079
G1 X25 Y34.947 E3.32254
G1 X21.926 Y34.461 E3.3743
G1 X19.151 Y33.047 E3.42609
G1 X16.953 Y30.849 E3.47778
G1 X15.539 Y28.074 E3.52958
G1 X15.053 Y25 E3.58133
G1 X15.539 Y21.926 E3.63309
G1 X16.953 Y19.151 E3.68488
G1 X19.151 Y16.953 E3.73658
G0 F3600 X27.706 Y16.392
G1 F420 X33.607 Y22.293 E3.87536
G0 F3600 X33.96 Y25.474
G1 F420 X24.525 Y16.04 E4.09725
G0 F3600 X22.111 Y16.455
G1 F420 X33.545 Y27.888 E4.36614
G0 F3600 X32.59 Y29.762
G1 F420 X20.237 Y17.408 E4.65668
G0 F3600 X18.687 Y18.687
G1 F420 X31.311 Y31.311 E4.95358
G0 F3600 X29.761 Y32.589
G1 F420 X17.408 Y20.236 E5.2441
G0 F3600 X16.454 Y22.111
G1 F420 X27.887 Y33.544 E5.51299
G0 F3600 X25.474 Y33.959
G1 F420 X16.039 Y24.524 E5.73488
G0 F3600 X16.392 Y27.705
G1 F420 X22.292 Y33.606 E5.87365
G1 X22.645 Y33.959




;Coordinate data for diamond frame
;Layer1 Z2
G0 F3600 X40 Y60
G1 F420 X224 Y60 E8.9367
G1 F420 X224 Y219.3487 E11.5925
G1 F420 X40 Y219.3487 E14.6591
G1 F420 X40 Y60 E17.315
G1 F420 X51.5 Y79.9186 E17.6983
G1 F420 X74.5 Y79.9186 E18.0816
G1 F420 X86 Y60 E18.465
G1 F420 X109 Y60 E18.8483
G1 F420 X120.5 Y79.9186 E19.2316
G1 F420 X143.5 Y79.9186 E19.615
G1 F420 X155 Y60 E19.9983
G1 F420 X178 Y60 E20.3816
G1 F420 X189.5 Y79.9186 E20.765
G1 F420 X212.5 Y79.9186 E21.1483
G1 F420 X224 Y60 E21.5316
G1 F420 X224 Y99.8372 E22.1956
G1 F420 X212.5 Y79.9186 E22.5789
G1 F420 X189.5 Y79.9186 E22.9622
G1 F420 X178 Y99.8372 E23.3456
G1 F420 X155 Y99.8372 E23.7289
G1 F420 X143.5 Y79.9186 E24.1122
G1 F420 X120.5 Y79.9186 E24.4956
G1 F420 X109 Y99.8372 E24.8789
G1 F420 X86 Y99.8372 E25.2622
G1 F420 X74.5 Y79.9186 E25.6456
G1 F420 X51.5 Y79.9186 E26.0289
G1 F420 X40 Y99.8372 E26.4122
G1 F420 X51.5 Y119.7558 E26.7956
G1 F420 X74.5 Y119.7558 E27.1789
G1 F420 X86 Y99.8372 E27.5622
G1 F420 X109 Y99.8372 E27.9456
G1 F420 X120.5 Y119.7558 E28.3289
G1 F420 X143.5 Y119.7558 E28.7122
G1 F420 X155 Y99.8372 E29.0956
G1 F420 X178 Y99.8372 E29.4789
G1 F420 X189.5 Y119.7558 E29.8622
G1 F420 X212.5 Y119.7558 E30.2456
G1 F420 X224 Y99.8372 E30.6289
G1 F420 X224 Y139.6743 E31.2929
G1 F420 X212.5 Y119.7558 E31.6762
G1 F420 X189.5 Y119.7558 E32.0595
G1 F420 X178 Y139.6743 E32.4429
G1 F420 X155 Y139.6743 E32.8262
G1 F420 X143.5 Y119.7558 E33.2095
G1 F420 X120.5 Y119.7558 E33.5929
G1 F420 X109 Y139.6743 E33.9762
G1 F420 X86 Y139.6743 E34.3595
G1 F420 X74.5 Y119.7558 E34.7429
G1 F420 X51.5 Y119.7558 E35.1262
G1 F420 X40 Y139.6743 E35.5095
G1 F420 X51.5 Y159.5929 E35.8929
G1 F420 X74.5 Y159.5929 E36.2762
G1 F420 X86 Y139.6743 E36.6595
G1 F420 X109 Y139.6743 E37.0429
G1 F420 X120.5 Y159.5929 E37.4262
G1 F420 X143.5 Y159.5929 E37.8095
G1 F420 X155 Y139.6743 E38.1929
G1 F420 X178 Y139.6743 E38.5762
G1 F420 X189.5 Y159.5929 E38.9595
G1 F420 X212.5 Y159.5929 E39.3429
G1 F420 X224 Y139.6743 E39.7262
G1 F420 X224 Y179.5115 E40.3901
G1 F420 X212.5 Y159.5929 E40.7735
G1 F420 X189.5 Y159.5929 E41.1568
G1 F420 X178 Y179.5115 E41.5401
G1 F420 X155 Y179.5115 E41.9235
G1 F420 X143.5 Y159.5929 E42.3068
G1 F420 X120.5 Y159.5929 E42.6901
G1 F420 X109 Y179.5115 E43.0735
G1 F420 X86 Y179.5115 E43.4568
G1 F420 X74.5 Y159.5929 E43.8401
G1 F420 X51.5 Y159.5929 E44.2235
G1 F420 X40 Y179.5115 E44.6068
G1 F420 X51.5 Y199.4301 E44.9901
G1 F420 X74.5 Y199.4301 E45.3735
G1 F420 X86 Y179.5115 E45.7568
G1 F420 X109 Y179.5115 E46.1401
G1 F420 X120.5 Y199.4301 E46.5235
G1 F420 X143.5 Y199.4301 E46.9068
G1 F420 X155 Y179.5115 E47.2901
G1 F420 X178 Y179.5115 E47.6735
G1 F420 X189.5 Y199.4301 E48.0568
G1 F420 X212.5 Y199.4301 E48.4401
G1 F420 X224 Y179.5115 E48.8235
G1 F420 X224 Y219.3487 E49.4874
G1 F420 X212.5 Y199.4301 E49.8708
G1 F420 X189.5 Y199.4301 E50.2541
G1 F420 X178 Y219.3487 E50.6374
G1 F420 X155 Y219.3487 E51.0208
G1 F420 X143.5 Y199.4301 E51.4041
G1 F420 X120.5 Y199.4301 E51.7874
G1 F420 X109 Y219.3487 E52.1708
G1 F420 X86 Y219.3487 E52.5541
G1 F420 X74.5 Y199.4301 E52.9374
G1 F420 X51.5 Y199.4301 E53.3208
G1 F420 X40 Y219.3487 E53.7041





;End GCode
M140 S0 ;heated bed heater off (if you have it)
G91 ;relative positioning
G28;move X/Y to min endstops, so the head is out of the way
M84 ;steppers off
M107
G90 ;absolute positioning
M82 ;absolute extrusion mode
;End of Gcode